X: 22906
T: Larmor Plage
R: reel
M: 4/4
K: Gminor
|:B,3 G, A,B,CA,|B,G,CA, DGGA|BAGA Bcdg|bgfa g3 a|
bg (3ggg fd (3ddd|cAdB cedc|BG (3GGG FDCD|FdcA G4:|
|:g3 a gddf|gbaf gfdc|BG (3GGG FGAc|BGAF GFDF|
GD (3DDD B3 A|cAGF GABc|dg (3ggg bgdc|BdAF G4:|

